app/images/icons/burger-icon.svg

<svg width="44" height="44" viewBox="0 0 44 44" fill="none" xmlns="http://www.w3.org/2000/svg">
<g clip-path="url(#clip0_0_161)">
<path d="M44 20.3359C44 18.6467 42.9108 17.2079 41.3982 16.6825C41.1658 11.4417 39.2092 7.41987 35.573 4.71723C32.2543 2.25065 27.6878 1 22 1C16.3122 1 11.7457 2.25065 8.42703 4.71731C4.79084 7.41987 2.83422 11.4418 2.60176 16.6826C1.08917 17.2079 0 18.6467 0 20.3359C0 21.3257 0.374172 22.2293 0.987852 22.9141C0.374172 23.5988 0 24.5024 0 25.4922C0 27.1918 1.10258 28.6378 2.6296 29.1551C3.18252 35.0454 8.18967 39.6719 14.2656 39.6719H29.7344C35.8103 39.6719 40.8175 35.0454 41.3704 29.1551C42.8974 28.6378 44 27.1918 44 25.4922C44 24.5024 43.6258 23.5988 43.0121 22.9141C43.6258 22.2293 44 21.3257 44 20.3359ZM22 3.57812C29.3933 3.57812 38.1513 5.85719 38.8034 16.4688H5.19655C5.84873 5.85719 14.6067 3.57812 22 3.57812ZM3.86719 19.0469H40.1328C40.8436 19.0469 41.4219 19.6251 41.4219 20.3359C41.4219 21.0467 40.8436 21.625 40.1328 21.625H3.86719C3.1564 21.625 2.57812 21.0467 2.57812 20.3359C2.57812 19.6251 3.1564 19.0469 3.86719 19.0469ZM29.7344 37.0938H14.2656C9.68456 37.0938 5.88302 33.7265 5.24958 29.3594H6.44531C7.30709 29.3594 7.57943 29.6525 8.12187 30.2366C8.78857 30.9545 9.70166 31.9375 11.6875 31.9375C13.6874 31.9375 14.5766 30.9444 15.226 30.2193C15.7387 29.6468 15.996 29.3594 16.8438 29.3594C17.6915 29.3594 17.9488 29.6468 18.4615 30.2193C19.1109 30.9444 20.0001 31.9375 22 31.9375C23.9999 31.9375 24.8891 30.9444 25.5385 30.2193C26.0512 29.6468 26.3085 29.3594 27.1562 29.3594C28.004 29.3594 28.2613 29.6468 28.774 30.2193C29.4234 30.9444 30.3126 31.9375 32.3125 31.9375C34.3124 31.9375 35.2016 30.9444 35.851 30.2193C36.3637 29.6468 36.621 29.3594 37.4688 29.3594H38.7504C38.117 33.7265 34.3154 37.0938 29.7344 37.0938ZM40.1328 26.7812H37.4688C35.4689 26.7812 34.5796 27.7743 33.9303 28.4995C33.4176 29.072 33.1603 29.3594 32.3125 29.3594C31.4647 29.3594 31.2074 29.072 30.6947 28.4995C30.0454 27.7743 29.1561 26.7812 27.1562 26.7812C25.1564 26.7812 24.2671 27.7743 23.6178 28.4995C23.1051 29.072 22.8478 29.3594 22 29.3594C21.1522 29.3594 20.8949 29.072 20.3822 28.4995C19.7329 27.7743 18.8436 26.7812 16.8438 26.7812C14.8439 26.7812 13.9546 27.7743 13.3053 28.4995C12.7926 29.072 12.5353 29.3594 11.6875 29.3594C10.8257 29.3594 10.5534 29.0662 10.0109 28.4821C9.34424 27.7643 8.43116 26.7812 6.44531 26.7812H3.86719C3.1564 26.7812 2.57812 26.203 2.57812 25.4922C2.57812 24.7814 3.1564 24.2031 3.86719 24.2031H40.1328C40.8436 24.2031 41.4219 24.7814 41.4219 25.4922C41.4219 26.203 40.8436 26.7812 40.1328 26.7812Z" fill="white"/>
<path d="M14.2656 13.8906C14.9776 13.8906 15.5547 13.3135 15.5547 12.6016C15.5547 11.8896 14.9776 11.3125 14.2656 11.3125C13.5537 11.3125 12.9766 11.8896 12.9766 12.6016C12.9766 13.3135 13.5537 13.8906 14.2656 13.8906Z" fill="white"/>
<path d="M29.7344 13.8906C30.4463 13.8906 31.0234 13.3135 31.0234 12.6016C31.0234 11.8896 30.4463 11.3125 29.7344 11.3125C29.0224 11.3125 28.4453 11.8896 28.4453 12.6016C28.4453 13.3135 29.0224 13.8906 29.7344 13.8906Z" fill="white"/>
<path d="M24.5781 11.3125C25.2901 11.3125 25.8672 10.7354 25.8672 10.0234C25.8672 9.31151 25.2901 8.73438 24.5781 8.73438C23.8662 8.73438 23.2891 9.31151 23.2891 10.0234C23.2891 10.7354 23.8662 11.3125 24.5781 11.3125Z" fill="white"/>
<path d="M19.4219 8.73438C20.1338 8.73438 20.7109 8.15724 20.7109 7.44531C20.7109 6.73338 20.1338 6.15625 19.4219 6.15625C18.7099 6.15625 18.1328 6.73338 18.1328 7.44531C18.1328 8.15724 18.7099 8.73438 19.4219 8.73438Z" fill="white"/>
</g>
<defs>
<clipPath id="clip0_0_161">
<rect width="44" height="44" fill="white"/>
</clipPath>
</defs>
</svg>

<svg xmlns="http://www.w3.org/2000/svg" width="44" height="44" fill="none"><path d="M44 20.336c0-1.69-1.09-3.128-2.602-3.653-.232-5.241-2.189-9.263-5.825-11.966C32.254 2.251 27.688 1 22 1 16.312 1 11.746 2.25 8.427 4.717 4.791 7.42 2.834 11.442 2.602 16.683A3.873 3.873 0 0 0 0 20.336c0 .99.374 1.893.988 2.578A3.851 3.851 0 0 0 0 25.492c0 1.7 1.103 3.146 2.63 3.663.553 5.89 5.56 10.517 11.636 10.517h15.468c6.076 0 11.084-4.627 11.636-10.517A3.873 3.873 0 0 0 44 25.492c0-.99-.374-1.893-.988-2.578A3.852 3.852 0 0 0 44 20.336ZM22 3.578c7.393 0 16.151 2.28 16.803 12.89H5.197C5.849 5.859 14.607 3.579 22 3.579ZM3.867 19.047h36.266c.71 0 1.289.578 1.289 1.289 0 .71-.578 1.289-1.29 1.289H3.868a1.29 1.29 0 0 1-1.289-1.29c0-.71.578-1.288 1.29-1.288Zm25.867 18.047H14.266c-4.581 0-8.383-3.367-9.016-7.735h1.195c.862 0 1.134.293 1.677.878.667.718 1.58 1.7 3.566 1.7 2 0 2.889-.993 3.538-1.718.513-.572.77-.86 1.618-.86.848 0 1.105.288 1.617.86.65.725 1.54 1.718 3.539 1.718 2 0 2.89-.993 3.538-1.718.513-.572.77-.86 1.618-.86.848 0 1.105.288 1.618.86.65.725 1.539 1.718 3.538 1.718 2 0 2.89-.993 3.539-1.718.513-.572.77-.86 1.618-.86h1.281c-.633 4.367-4.435 7.735-9.016 7.735ZM40.133 26.78h-2.664c-2 0-2.89.993-3.539 1.719-.512.572-.77.86-1.617.86-.848 0-1.106-.288-1.618-.86-.65-.726-1.539-1.719-3.539-1.719s-2.889.993-3.538 1.719c-.513.572-.77.86-1.618.86-.848 0-1.105-.288-1.618-.86-.65-.726-1.538-1.719-3.538-1.719-2 0-2.89.993-3.539 1.719-.512.572-.77.86-1.617.86-.862 0-1.135-.294-1.677-.878-.667-.718-1.58-1.7-3.566-1.7H3.867a1.29 1.29 0 0 1-1.289-1.29c0-.71.578-1.289 1.29-1.289h36.265a1.29 1.29 0 0 1 0 2.578Z"/><path d="M14.266 13.89a1.289 1.289 0 1 0 0-2.577 1.289 1.289 0 0 0 0 2.578ZM29.734 13.89a1.289 1.289 0 1 0 0-2.577 1.289 1.289 0 0 0 0 2.578ZM24.578 11.313a1.289 1.289 0 1 0 0-2.579 1.289 1.289 0 0 0 0 2.579ZM19.422 8.734a1.289 1.289 0 1 0 0-2.578 1.289 1.289 0 0 0 0 2.578Z"/></svg>
